X: 10352
T: Don't Spill The Juice!
R: jig
M: 6/8
K: Gmajor
|:GAB cBA|Ggf edB|GAB dBA|FGA cBA|
GAB cBA|Ggf edB|cGc BGB|1 AFD G2D:|2 AFD G2g||
|:edB efg|dBg dBG|cBc cde|fd^c d2g|
edB efg|dbg dBG|cGc BGB|1 AFD G2g:|2 AFD G2D||

